packages/katcn/src/icons/svg/eclipse.svg

<svg width="24" height="25" viewBox="0 0 24 25" fill="none" xmlns="http://www.w3.org/2000/svg">
<path d="M15.2 3.46796C14.2 3.16796 13.1 2.96796 12 2.96796C6.5 2.96796 2 7.46796 2 12.968C2 18.468 6.5 22.968 12 22.968C13.1 22.968 14.2 22.768 15.2 22.468C15.6 22.368 15.9 21.968 15.9 21.568C15.9 21.168 15.6 20.768 15.2 20.668C11.9 19.568 9.7 16.568 9.7 13.068C9.7 9.76796 11.8 6.76796 14.8 5.56796C17.9 6.66796 20 9.66796 20 12.968C20 15.368 18.9 17.568 17.1 19.168C16.7 19.568 16.6 20.168 17 20.568C17.4 20.968 18 21.068 18.4 20.668C20.7 18.768 22 15.968 22 12.968C22 8.66796 19.3 4.86796 15.2 3.46796ZM7.7 12.968C7.7 16.168 9.2 19.068 11.7 20.968C7.4 20.768 4 17.268 4 12.968C4 8.66796 7.4 5.16796 11.7 4.96796C9.2 6.86796 7.7 9.76796 7.7 12.968Z" fill="black"/>
</svg>

<svg xmlns="http://www.w3.org/2000/svg" fill="none" viewBox="0 0 24 25"><path fill="#000" d="M15.2 3.468c-1-.3-2.1-.5-3.2-.5-5.5 0-10 4.5-10 10s4.5 10 10 10c1.1 0 2.2-.2 3.2-.5.4-.1.7-.5.7-.9s-.3-.8-.7-.9c-3.3-1.1-5.5-4.1-5.5-7.6 0-3.3 2.1-6.3 5.1-7.5 3.1 1.1 5.2 4.1 5.2 7.4 0 2.4-1.1 4.6-2.9 6.2-.4.4-.5 1-.1 1.4s1 .5 1.4.1c2.3-1.9 3.6-4.7 3.6-7.7 0-4.3-2.7-8.1-6.8-9.5m-7.5 9.5c0 3.2 1.5 6.1 4 8-4.3-.2-7.7-3.7-7.7-8s3.4-7.8 7.7-8c-2.5 1.9-4 4.8-4 8"/></svg>
